X:1
T: Janet, Andrew, Anna, Susanne's Jig
C:Bruce Shawyer
R:Jig
Q:180
K:D
M:6/8
L:1/16
f2|d4d2 d2c2B2|A4A2 A4F2|G2A2G2 E2F2G2|A4F2 A4A2|d2e2d2 d2c2B2|A2B2A2 A4F2|G2A2G2 E2F2G2|F2D2D2 D4A2|
d4d2 d2c2B2|A4A2 A4F2|G2A2G2 E2F2G2|A4F2 A4A2|d2e2d2 d2c2B2|A2B2A2 A4F2|G2A2G2 E2F2G2|F2D2D2 D4A2|
d4d2 e2f2g2|a4a2 a4f2|g2a2g2 g4e2|f4f2 f4A2|d4d2 e2f2g2|a4a2 a4f2|g2a2g2 f2e2f2|e2d2d2 d4f2|
d4d2 e2f2g2|a4a2 a4f2|g2a2g2 g4e2|f4f2 f4A2|d4d2 e2f2g2|a4a2 a4f2|g2a2g2 f2e2f2|e2d2d2 d4||
